packages/vibrant-icons/assets/icons/Home/Thin.svg

<svg width="24" height="24" viewBox="0 0 24 24" fill="none" xmlns="http://www.w3.org/2000/svg">
<path d="M2.59991 21.6005C2.48945 21.6005 2.3999 21.511 2.3999 21.4005V9.65948C2.3999 9.60168 2.42491 9.5467 2.46848 9.50872L11.8685 1.31408C11.9438 1.24842 12.056 1.24842 12.1313 1.31408L21.5313 9.50872C21.5749 9.5467 21.5999 9.60168 21.5999 9.65948V21.4C21.5999 21.5105 21.5104 21.6 21.3999 21.6L2.59991 21.6005ZM12.8499 19.9005H19.8999V10.3415L12.0989 3.5405L11.9999 3.4545L11.9009 3.5405L4.0999 10.3415V19.9005H11.1499V15.1005C11.1499 14.9901 11.2394 14.9005 11.3499 14.9005H12.6499C12.7604 14.9005 12.8499 14.9901 12.8499 15.1005V19.9005Z" fill="#0C0C0C"/>
</svg>

<svg xmlns="http://www.w3.org/2000/svg" width="24" height="24" fill="none"><path fill="#0C0C0C" d="M2.6 21.6a.2.2 0 0 1-.2-.2V9.66a.2.2 0 0 1 .068-.151l9.4-8.195a.2.2 0 0 1 .263 0l9.4 8.195a.2.2 0 0 1 .069.15V21.4a.2.2 0 0 1-.2.2zm10.25-1.7h7.05v-9.558L12.099 3.54l-.1-.086-.098.087-7.801 6.8v9.56h7.05v-4.8c0-.11.09-.2.2-.2h1.3c.11 0 .2.09.2.2z"/></svg>
